!!!COM: Bartók, Béla
!!!OTL: String Quartet No. 5
!!!OMV: I: Allegro
!!!example: 344
!!!work: Bar-43
**kern	**dynam	**kern	**dynam	**kern	**dynam	**kern	**dynam
*part4	*part4	*part3	*part3	*part2	*part2	*part1	*part1
*staff4	*	*staff3	*	*staff2	*	*staff1	*
*I"Violoncello	*	*I"Viola	*	*I"Violin II	*	*I"Violin I	*
*I'Vc.	*	*I'Vla.	*	*I'Vln. II	*	*I'Vln. I	*
*clefF4	*	*clefC3	*	*clefG2	*	*clefG2	*
*k[]	*	*k[]	*	*k[]	*	*k[]	*
*C:	*	*C:	*	*C:	*	*C:	*
*M4/4	*	*M4/4	*	*M4/4	*	*M4/4	*
=87	=	=	=	=	=	=	=
8GG^^	f	8G^^	ff	2r	.	2r	.
4E 4B-X	.	4e 4b-X	.	.	.	.	.
8GG	.	8G	.	.	.	.	.
4E~ 4B-X	.	4e~ 4b-X	.	4r	.	4r	.
4GG~^^ 4E 4B-	.	4G~^^ 4e 4b-	.	(20ffLL	ff	(20fffLL	ff
.	.	.	.	20ee	.	20eee	.
.	.	.	.	20gg-X	.	20ggg-X	.
.	.	.	.	20ff	.	20fff	.
.	.	.	.	20ggnJJ)	.	20gggnJJ)	.
=88	=88	=88	=88	=88	=88	=88	=88
8GG^^	.	8G^^	.	[2aa-X	.	[2aaa-X	.
4E 4B-X	.	4e 4b-X	.	.	.	.	.
8GG	.	8G	.	.	.	.	.
4E~ 4B-X	.	4e~ 4b-X	.	8aa-L]	.	8aaa-L]	.
.	.	.	.	(8gg-X	.	(8ggg-X	.
4GG~^^ 4E 4B-	.	4G~^^ 4e 4b-	.	8ee-X)	.	8eee-X)	.
.	.	.	.	8dd-XJ	.	8ddd-XJ	.
=89	=89	=89	=89	=89	=89	=89	=89
8GG^^ 8G	.	8G	.	2r	.	2r	.
4E 4B-X	.	8r	.	.	.	.	.
.	.	8G^^ 8g	.	.	.	.	.
8GG 8G	.	4e 4b-X	.	.	.	.	.
4E~ 4B-X	.	.	.	(20fLL	.	(20ffLL	.
.	.	.	.	20e	.	20ee	.
.	.	.	.	20g-X	.	20gg-X	.
.	.	8G 8g	.	.	.	.	.
.	.	.	.	20f	.	20ff	.
.	.	.	.	20gnJJ)	.	20ggnJJ)	.
4GG~^^ 4E 4B-	.	4e~ 4b-X	.	[4a-X	.	[4aa-X	.
=90	=90	=90	=90	=90	=90	=90	=90
8GG^^ 8G	.	4G~^^ 4e 4b-X	.	8a-L]	.	8aa-L]	.
4E 4B-X	.	.	.	(8g-X	.	(8gg-X	.
.	.	8G^^ 8g	.	8e-X)	.	8ee-X)	.
8GG 8G	.	4e 4b-	.	8d-XJ	.	8dd-XJ	.
4E~ 4B-X	.	.	.	8r	.	8r	.
.	.	8G 8g	.	8e-	.	8ee-	.
4GG~^^ 4E 4B-	.	4e~ 4b-X	.	8g-L	.	8gg-L	.
.	.	.	.	(8a-XJ	.	(8aa-XJ	.
=91	=91	=91	=91	=91	=91	=91	=91
!!linebreak:original
8GG^^ 8G	.	4G~^^ 4e 4b-X	.	8cc-XL)	.	8ccc-XL)	.
4E 4B-X	.	.	.	(8a-X	.	(8aa-X	.
.	.	8G^^ 8g	.	8g-X)	.	8gg-X)	.
8GG 8G	.	4e 4b-	.	8cnJ	.	8ccnJ	.
4E~ 4B-X	.	.	.	8d-X	.	8dd-X	.
.	.	8G 8g	.	([4.e-X	.	([4.ee-X	.
4GG~^^ 4E 4B-	.	4e~ 4b-X	.	.	.	.	.
=92	=92	=92	=92	=92	=92	=92	=92
8GG^^ 8G	.	4G~^^ 4e 4b-X	.	8e-L]	.	8ee-L]	.
4E 4B-X	.	.	.	8g-X)	.	8gg-X)	.
.	.	8G^^ 8g	.	8c	.	8cc	.
8GG 8G	.	4e 4b-	.	8d-XJ	.	8dd-XJ	.
4E~ 4B-X	.	.	.	4e-X	.	4ee-X	.
.	.	8G 8g	.	.	.	.	.
4GG~^^ 4E 4B-	.	4e~ 4b-X	.	(20enLL	.	(20eenLL	.
.	.	.	.	20f	.	20ff	.
.	.	.	.	20gn	.	20ggn	.
.	.	.	.	20an	.	20aa	.
.	.	.	.	20b-XJJ)	.	20bb-XJJ)	.
=93	=93	=93	=93	=93	=93	=93	=93
8GG^^ 8G	.	4G~^^ 4e 4b-X	.	[2cc-X	.	[2ccc-X	.
4E 4B-X	.	.	.	.	.	.	.
.	.	8G^^ 8g	.	.	.	.	.
8GG 8G	.	4e 4b-	.	.	.	.	.
4E~ 4B-X	.	.	.	8cc-L]	.	8ccc-L]	.
.	.	8G 8g	.	8ddn	.	8dddn	.
4GG~^^ 4E 4B-	.	4e~ 4b-X	.	8cn	.	8ccn	.
.	.	.	.	8d-XJ	.	8dd-XJ	.
=94	=94	=94	=94	=94	=94	=94	=94
8GG^^ 8G	.	4G~^^ 4e 4b-X	.	8e-XL	.	8ee-XL	.
4E 4B-X	.	.	.	(24enL	.	(24eenL	.
.	.	.	.	24f	.	24ff	.
.	.	.	.	24gJJ	.	24ggJJ	.
.	.	8G^^ 8g	.	[2a-X	.	[2aa-X	.
8GG 8G	.	4e 4b-	.	.	.	.	.
4E~ 4B-X	.	.	.	.	.	.	.
.	.	8G 8g	.	.	.	.	.
4GG~^^ 4E 4B-	.	4e~ 4b-X	.	8a-L])	.	8aa-L])	.
.	.	.	.	(8g-XJ	.	(8gg-XJ	.
=95	=95	=95	=95	=95	=95	=95	=95
!!linebreak:original
8GG^^ 8G	.	4G~^^ 4e 4b-X	.	8e-XL)	.	8ee-XL)	.
4E 4B-X	.	.	.	8d-XJ	.	8dd-XJ	.
.	.	8G^^ 8g	.	4r	.	4r	.
8GG 8G	.	4e 4b-	.	.	.	.	.
4E~ 4B-	.	.	.	(20fLL	.	(20fLL	.
.	.	.	.	20en	.	20e	.
.	.	.	.	20g-X	.	20g-X	.
.	.	8G 8g	.	.	.	.	.
.	.	.	.	20f	.	20f	.
.	.	.	.	20gnJJ)	.	20gnJJ)	.
4GG~^^ 4E 4B-	.	4e~ 4b-	.	([4a-X	.	([4a-X	.
=96	=96	=96	=96	=96	=96	=96	=96
4GG~^^ 4E 4B-X	.	8G	.	8a-L]	.	8a-L]	.
.	.	4e~ 4b-X	.	8g-XJ)	.	8g-XJ)	.
8GG 8G	.	.	.	4r	.	8r	.
4E~ 4B-	.	8G	.	.	.	(20fLL	.
.	.	.	.	.	.	20e	.
.	.	.	.	.	.	20g-	.
.	.	4e~ 4b-	.	4r	.	.	.
.	.	.	.	.	.	20f	.
.	.	.	.	.	.	20gnJJ)	.
8GG 8G	.	.	.	.	.	8r	.
4GG~^^ 4E 4B-	.	8GL	.	(20BLL	.	(20fLL	.
.	.	.	.	20c	.	20e	.
.	.	.	.	20B-X	.	20g-X	.
.	.	8e~J 8b-	.	.	.	.	.
.	.	.	.	20Bn	.	20f	.
.	.	.	.	20AnJJ)	.	20gnJJ)	.
=97	=97	=97	=97	=97	=97	=97	=97
2r	.	2r	.	8G#X	.	8g#X^^	.
.	.	.	.	8r	.	4ff 4bb	.
.	.	.	.	8G#^^	.	.	.
.	.	.	.	4f 4bn	.	8g#	.
4r	.	4r	.	.	.	4ff~ 4bb	.
.	.	.	.	8G#	.	.	.
(20d-XLL	.	(20dd-XLL	.	4f~ 4b	.	4g#~^^ 4ff 4bb	.
20c	.	20cc	.	.	.	.	.
20en	.	20een	.	.	.	.	.
20c#X	.	20cc#X	.	.	.	.	.
20d#XJJ)	.	20dd#XJJ)	.	.	.	.	.
=98	=98	=98	=98	=98	=98	=98	=98
!!pagebreak:original
[2e	.	[2ee	.	4G#X~^^ 4f 4b	.	8g#X^^	.
.	.	.	.	.	.	4ff 4bb	.
.	.	.	.	8G#^^	.	.	.
.	.	.	.	4f 4b	.	8g#	.
8eL]	.	8eeL]	.	.	.	4ff~ 4bb	.
(8dn	.	(8ddn	.	8G#	.	.	.
8B)	.	8b)	.	4f~ 4b	.	4g#~^^ 4ff 4bb	.
8AJ	.	8aJ	.	.	.	.	.
=99	=99	=99	=99	=99	=99	=99	=99
8r	.	8r	.	4G#X~^^ 4f 4b	.	8g#X^^	.
(8A	.	(8a	.	.	.	4ff 4bb	.
8BL)	.	8bL)	.	8G#^^	.	.	.
8dJ	.	8ddJ	.	4f 4b	.	8g#	.
(8eL	.	(8eeL	.	.	.	4ff~ 4bb	.
8g)	.	8gg)	.	8G#	.	.	.
8c#X	.	8cc#X	.	4f~ 4b	.	4g#~^^ 4ff 4bb	.
8d#XJ	.	8dd#XJ	.	.	.	.	.
=100	=100	=100	=100	=100	=100	=100	=100
24B#XLL	.	24b#XLL	.	4G#X~^^ 4f 4b	.	8g#X^^	.
24c#X	.	24cc#X	.	.	.	.	.
24d#XJJ	.	24dd#XJJ	.	.	.	.	.
[4.e	.	[4.ee	.	.	.	4ff 4bb	.
.	.	.	.	8G#^^	.	.	.
.	.	.	.	4f 4b	.	8g#	.
8eL]	.	8eeL]	.	.	.	4ff~ 4bb	.
(8A#X	.	(8a#X	.	8G#	.	.	.
8c#)	.	8cc#)	.	4f~ 4b	.	4g#~^^ 4ff 4bb	.
8d#J	.	8dd#J	.	.	.	.	.
=101	=101	=101	=101	=101	=101	=101	=101
8cn	.	8ccn	.	4G#X~^^ 4f 4b	.	8g#X^^	.
8r	.	8r	.	.	.	4ff 4bb	.
(20cLL	.	(20ccLL	.	8G#^^	.	.	.
20Bn	.	20bn	.	.	.	.	.
20c#X	.	20cc#X	.	.	.	.	.
.	.	.	.	4f 4b	.	8g#	.
20d	.	20ddn	.	.	.	.	.
20d#XJJ)	.	20dd#XJJ)	.	.	.	.	.
4r	.	4r	.	.	.	4ff~ 4bb	.
.	.	.	.	8G#	.	.	.
(20C#XLL	.	(20c#XLL	.	4f~ 4b	.	8g#L	.
20BB#X	.	20B#X	.	.	.	.	.
20D	.	20dn	.	.	.	.	.
.	.	.	.	.	.	8ffJ 8bb	.
20C#	.	20c#	.	.	.	.	.
20D#XJJ)	.	20d#XJJ)	.	.	.	.	.
==	==	==	==	==	==	==	==
*-	*-	*-	*-	*-	*-	*-	*-
!!!CDT: 1881/03/25-1945/09/26
!!!CBL: Sînnicolau Mare (Nagyszentmiklós), Romania (Hungary)
!!!CDL: New York, United States
!!!CNT: Hungarian
!!!AGN: Instrumental; Chamber
!!!MCN:
!!!MDT: 1935/04/08
!!!MGN: Kolisch Quartet
!!!MLC: Washington, D.C., United States of America
!!!MPD: 1935
!!!MPN:
!!!ODT: 1934
!!!PDT: 1936
!!!excerpt-start-measure: 87
!!!excerpt-end-measure: 101
!!!excerpt-start-time: 2:59
!!!excerpt-end-time: 3:30
!!!EEV: 2020/01/17
!!!system-decoration: [(s1,s2,s3,s4)]
!!!ONB: Converted from MusicXML on 2020/01/17
